!!!!SEGMENT: Ren2002-Hec_dies_quam_fecit.krn
!!!id: Ren2002
!!!AGN: Motet
!!!SCT: Sherr (1989)
!!!voices: 4
!!!COM: Renaldo
!!!OTL: Hec dies quam fecit
**kern	**kern	**kern	**kern
*part4	*part3	*part2	*part1
*staff4	*staff3	*staff2	*staff1
*I"Bassus	*I"Tenor	*I"Altus	*I"Superius
*I'B	*I'T	*I'A	*I'S
*clefF4	*clefGv2	*clefGv2	*clefG2
*k[]	*k[]	*k[]	*k[]
*C:	*C:	*C:	*C:
*M2/1	*M2/1	*M2/1	*M2/1
*met(C)	*met(C)	*met(C)	*met(C)
!!section: Prima Pars: Hec dies quam fecit
!!!OMD: Prima Pars: Hec dies quam fecit
=1	=1	=1	=1
0E	0r	1r	0r
.	.	[1B	.
=2	=2	=2	=2
1D	0r	1B]	0r
[1F	.	1A	.
=3	=3	=3	=3
1F]	0r	0c	0r
1E	.	.	.
=4	=4	=4	=4
2.G	0r	1B	0r
4F	.	.	.
2D	.	2.d	.
[2F	.	.	.
.	.	4c	.
=5	=5	=5	=5
2F]	0r	2A	0r
2E	.	2c	.
2D	.	2B	.
2C	.	[2A	.
=6	=6	=6	=6
1BB	0r	2A]	1r
.	.	2G#i	.
1AA	.	1A	[1e
=7	=7	=7	=7
2.E	0B	0r	1e]
4F	.	.	.
1G	.	.	1d
=8	=8	=8	=8
2D	1A	2d	0f
1F	.	4c	.
.	.	4B	.
.	[1c	2A	.
4E	.	2F	.
4D	.	.	.
=9	=9	=9	=9
2C	1c]	1G	1e
4BB	.	.	.
4AA	.	.	.
1GG	[1B	1G	2.d
.	.	.	4c
=10	=10	=10	=10
2G	2B]	2r	4d
.	.	.	4e
2F	2.c	2A	2f
1E	.	2B	2.g
.	4B	.	.
.	4A	2c	.
.	4G	.	4e
=11	=11	=11	=11
1D	1A	1d	1f
2r	1B	1d	1g
2GG	.	.	.
=12	=12	=12	=12
2.C	1c	2G	2.e
.	.	2.g	.
4D	.	.	4f
1E	1B	.	1g
.	.	4f	.
.	.	[2e	.
=13	=13	=13	=13
1F	2r	2e]	1a
.	2A	2d	.
2E	2B	1e	1g
2C	[2c	.	.
=14	=14	=14	=14
1F	2c]	2r	2f
.	4B	1A	2d
.	4A	.	.
1E	2B	.	1e
.	[2E	2G	.
=15	=15	=15	=15
1AA	2E]	2A	2.e
.	2A	2c	.
.	.	.	4f
2r	2G	2B	2g
2AA	[2c	2A	2a
=16	=16	=16	=16
2.C	2c]	2.e	2g
.	4B	.	2cc
4D	4A	4f	.
1E	1G	2g	2b
.	.	[2e	2g
=17	=17	=17	=17
1F	2r	2e]	1a
.	2A	2d	.
2E	2B	1e	2g
2C	2c	.	[2cc
=18	=18	=18	=18
1F	1A	2.c	4cc]
.	.	.	4b
.	.	.	1a
.	.	4d	.
1E	1B	1e	.
.	.	.	2g#i
=19	=19	=19	=19
2D	2.d	2.f	0a
1F	.	.	.
.	8cL	4e	.
.	8BJ	.	.
.	2A	2d	.
2E	2G	2c	.
=20	=20	=20	=20
2D	2F	2B	0dd
2C	1E	1A	.
1BB	.	.	.
.	2D	2G#i	.
=21	=21	=21	=21
1AA	2E	1A	1cc
.	1A	.	.
1r	.	1E	1b
.	2G#i	.	.
=22	=22	=22	=22
2r	1A	2r	[0e
1A	.	1c	.
.	1E	.	.
2G	.	2B	.
=23	=23	=23	=23
1A	2r	2c	0e_
.	1A	2A	.
1E	.	1B	.
.	2G	.	.
=24	=24	=24	=24
2r	1A	2c	0e]
1A	.	2A	.
.	1E	1B	.
2G	.	.	.
=25	=25	=25	=25
2A	1.c	2r	2e
2E	.	1e	2g
1F	.	.	2f
.	4B	2d	[2a
.	4A	.	.
=26	=26	=26	=26
1E	1B	1e	2a]
.	.	.	2g#i
2r	[1A	2.e	1a
[2A	.	.	.
.	.	4d	.
=27	=27	=27	=27
2A]	1A]	2c	1e
2G	.	2B	.
2F	1r	2A	2f
2E	.	2G	2g
=28	=28	=28	=28
2D	1r	2A	2f
2C	.	1c	2e
1F	2r	.	2f
.	[2A	4B	2d
.	.	4A	.
=29	=29	=29	=29
1E	2A]	1B	1e
.	2G	.	.
1r	2F	1c	2A
.	2E	.	2e
=30	=30	=30	=30
1r	2D	2d	2f
.	2C	2e	2g
2r	1F	2c	1a
[2A	.	4B	.
.	.	4A	.
=31	=31	=31	=31
2A]	1E	1B	2r
2G	.	.	2e
2F	2.A	1c	[1f
2E	.	.	.
.	4G	.	.
=32	=32	=32	=32
2D	4A	2d	2f]
.	4B	.	.
2C	1c	2e	2e
1F	.	4A	2f
.	.	4B	.
.	4B	4c	[2a
.	4A	4d	.
=33	=33	=33	=33
1E	1B	1e	2a]
.	.	.	2g
2.F	[1Al	1c	2.a
4E	.	.	4g
=34	=34	=34	=34
4D	0A_	1d	4f
4C	.	.	4e
1D	.	.	1f
.	.	2r	.
4C	.	2D	4e
4BB	.	.	4d
=35	=35	=35	=35
2AA	0A_	2E	2c
2D	.	2F	1d
1AA	.	1E	.
.	.	.	2c#i
=36	=36	=36	=36
0D	0A_	2F	2d
.	.	2D	1f
.	.	2r	.
.	.	[2d	4e
.	.	.	4d
=37	=37	=37	=37
1AA	0A_	2d]	1e
.	.	2c	.
[1D	.	1d	[1f
=38	=38	=38	=38
1D]	0A_	1d	1f]
[1AAl	.	[1cl	[1el
=39	=39	=39	=39
00AA]	00A]	00c]	00e]
==	==	==	==
*-	*-	*-	*-
!!!system-decoration: [*]
!!!RDF**kern: i = editorial accidental
!!!RDF**kern: l = terminal long
!!!ENC: Benjamin Ory
!!!END: 2022/3/16
!!!EED: Benjamin Ory
!!!EEV: 2022/03/16
!!!YEC: Copyright 2022 Benjamin Ory, All Rights Reserved
!!!ONB: Translated from MusicXML on 2022/03/16
